Numix-Circle/48x48/apps/city.svg

<?xml version="1.0" encoding="UTF-8" standalone="no"?>
<svg
   xmlns:dc="http://purl.org/dc/elements/1.1/"
   xmlns:cc="http://creativecommons.org/ns#"
   xmlns:rdf="http://www.w3.org/1999/02/22-rdf-syntax-ns#"
   xmlns:svg="http://www.w3.org/2000/svg"
   xmlns="http://www.w3.org/2000/svg"
   xmlns:sodipodi="http://sodipodi.sourceforge.net/DTD/sodipodi-0.dtd"
   xmlns:inkscape="http://www.inkscape.org/namespaces/inkscape"
   viewBox="0 0 48 48"
   id="svg2"
   version="1.1"
   inkscape:version="0.48.5 r10040"
   sodipodi:docname="steam_icon_255710.svg"
   width="100%"
   height="100%">
  <metadata
     id="metadata61">
    <rdf:RDF>
      <cc:Work
         rdf:about="">
        <dc:format>image/svg+xml</dc:format>
        <dc:type
           rdf:resource="http://purl.org/dc/dcmitype/StillImage" />
        <dc:title />
      </cc:Work>
    </rdf:RDF>
  </metadata>
  <sodipodi:namedview
     pagecolor="#ffffff"
     bordercolor="#666666"
     borderopacity="1"
     objecttolerance="10"
     gridtolerance="10"
     guidetolerance="10"
     inkscape:pageopacity="0"
     inkscape:pageshadow="2"
     inkscape:window-width="1280"
     inkscape:window-height="998"
     id="namedview59"
     showgrid="true"
     showguides="false"
     inkscape:zoom="11.313708"
     inkscape:cx="39.675608"
     inkscape:cy="26.844736"
     inkscape:window-x="0"
     inkscape:window-y="0"
     inkscape:window-maximized="1"
     inkscape:current-layer="svg2">
    <inkscape:grid
       type="xygrid"
       id="grid3389" />
  </sodipodi:namedview>
  <defs
     id="defs4">
    <clipPath
       id="clipPath-824049301">
      <g
         transform="translate(0,-1004.3622)"
         id="g17">
        <path
           d="m -24 13 c 0 1.105 -0.672 2 -1.5 2 -0.828 0 -1.5 -0.895 -1.5 -2 0 -1.105 0.672 -2 1.5 -2 0.828 0 1.5 0.895 1.5 2 z"
           transform="matrix(15.333333,0,0,11.5,414.99999,878.8622)"
           fill="#1890d0"
           id="path19" />
      </g>
    </clipPath>
  </defs>
  <g
     id="g21">
    <path
       d="m 36.31 5 c 5.859 4.062 9.688 10.831 9.688 18.5 c 0 12.426 -10.07 22.5 -22.5 22.5 c -7.669 0 -14.438 -3.828 -18.5 -9.688 c 1.037 1.822 2.306 3.499 3.781 4.969 c 4.085 3.712 9.514 5.969 15.469 5.969 c 12.703 0 23 -10.298 23 -23 c 0 -5.954 -2.256 -11.384 -5.969 -15.469 c -1.469 -1.475 -3.147 -2.744 -4.969 -3.781 z m 4.969 3.781 c 3.854 4.113 6.219 9.637 6.219 15.719 c 0 12.703 -10.297 23 -23 23 c -6.081 0 -11.606 -2.364 -15.719 -6.219 c 4.16 4.144 9.883 6.719 16.219 6.719 c 12.703 0 23 -10.298 23 -23 c 0 -6.335 -2.575 -12.06 -6.719 -16.219 z"
       opacity="0.05"
       id="path23" />
    <path
       d="m 41.28 8.781 c 3.712 4.085 5.969 9.514 5.969 15.469 c 0 12.703 -10.297 23 -23 23 c -5.954 0 -11.384 -2.256 -15.469 -5.969 c 4.113 3.854 9.637 6.219 15.719 6.219 c 12.703 0 23 -10.298 23 -23 c 0 -6.081 -2.364 -11.606 -6.219 -15.719 z"
       opacity="0.1"
       id="path25" />
    <path
       d="m 31.25 2.375 c 8.615 3.154 14.75 11.417 14.75 21.13 c 0 12.426 -10.07 22.5 -22.5 22.5 c -9.708 0 -17.971 -6.135 -21.12 -14.75 a 23 23 0 0 0 44.875 -7 a 23 23 0 0 0 -16 -21.875 z"
       opacity="0.2"
       id="path27" />
  </g>
  <g
     id="g29"
     style="fill:#4c7ebd;fill-opacity:1">
    <path
       d="m 24 1 c 12.703 0 23 10.297 23 23 c 0 12.703 -10.297 23 -23 23 -12.703 0 -23 -10.297 -23 -23 0 -12.703 10.297 -23 23 -23 z"
       fill="url(#linearGradient3764)"
       fill-opacity="1"
       id="path31"
       style="fill:#4c7ebd;fill-opacity:1" />
  </g>
  <path
     style="fill:#000000;fill-opacity:1;fill-rule:nonzero;stroke:none;opacity:0.1"
     d="m 19,12 0,6 -3,0 -1,0 -5,0 0,3 0,1 0,2 0,1 0,2 0,1 0,2 0,1 0,2 0,1 0,2 0,1 0,3 1,0 8,0 0,3 12,0 0,-2 c 10.174451,-4.266478 0,0 10,-3 l 0,-1 0,-1 0,-1 0,-1 0,-1 0,-1 0,-1 0,-1 0,-1 0,-1 0,-1 0,-1 0,-1 0,-1 0,-2 -5,0 -1,0 -4,0 0,-10 z"
     id="rect4315"
     inkscape:connector-curvature="0"
     sodipodi:nodetypes="cccccccccccccccccccccccccccccccccccccccccccc" />
  <g
     id="g33" />
  <g
     id="g47">
    <g
       clip-path="url(#clipPath-824049301)"
       id="g49">
      <!-- color: #7dc06d -->
      <g
         id="g51" />
    </g>
  </g>
  <path
     style="opacity:1;fill:#103810;fill-opacity:1;fill-rule:nonzero;stroke:none"
     d="M 5 33 C 4.2974938 33 3.6179236 33.111186 2.96875 33.28125 C 4.9418947 37.742081 8.2808882 41.443122 12.46875 43.875 C 12.811174 42.984223 13 42.011371 13 41 C 13 36.581722 9.418278 33 5 33 z "
     id="path3787" />
  <rect
     style="fill:#c1e6ff;fill-opacity:1;fill-rule:nonzero;stroke:none"
     id="rect4022"
     width="10"
     height="21"
     x="10"
     y="18" />
  <path
     style="fill:#494949;fill-opacity:1;fill-rule:nonzero;stroke:none"
     d="M 9 17 L 9 20 L 9 21 L 9 23 L 9 24 L 9 26 L 9 27 L 9 29 L 9 30 L 9 32 L 9 33 L 9 35 L 9 36 L 9 39 L 10 39 L 10 36 L 14 36 L 14 38 L 15 38 L 15 36 L 20 36 L 20 35 L 15 35 L 15 33 L 20 33 L 20 32 L 15 32 L 15 30 L 20 30 L 20 29 L 15 29 L 15 27 L 20 27 L 20 26 L 15 26 L 15 24 L 20 24 L 20 23 L 15 23 L 15 21 L 20 21 L 20 20 L 15 20 L 15 18 L 20 18 L 20 17 L 15 17 L 14 17 L 9 17 z M 10 18 L 14 18 L 14 20 L 10 20 L 10 18 z M 10 21 L 14 21 L 14 23 L 10 23 L 10 21 z M 10 24 L 14 24 L 14 26 L 10 26 L 10 24 z M 10 27 L 14 27 L 14 29 L 10 29 L 10 27 z M 10 30 L 14 30 L 14 32 L 10 32 L 10 30 z M 10 33 L 14 33 L 14 35 L 10 35 L 10 33 z "
     id="rect3876-6" />
  <path
     style="opacity:1;fill:#396929;fill-opacity:1;fill-rule:nonzero;stroke:none"
     d="M 14 37 C 11.3868 37 9.0504319 38.127565 7.40625 39.90625 C 11.371185 44.041173 16.853737 46.699592 22.96875 46.96875 C 23.003672 46.64657 23 46.331467 23 46 C 23 41.029437 18.970563 37 14 37 z "
     id="path3789" />
  <rect
     style="fill:#dbdfe1;fill-opacity:1;fill-rule:nonzero;stroke:none"
     id="rect4158"
     width="13"
     height="19"
     x="27"
     y="21" />
  <rect
     style="fill:#c4cbcd;fill-opacity:1;fill-rule:nonzero;stroke:none"
     id="rect4164-9-9-2-7-2"
     width="12"
     height="1"
     x="28"
     y="39" />
  <rect
     style="fill:#c4cbcd;fill-opacity:1;fill-rule:nonzero;stroke:none"
     id="rect4160"
     width="12"
     height="1"
     x="28"
     y="21" />
  <rect
     style="fill:#c4cbcd;fill-opacity:1;fill-rule:nonzero;stroke:none"
     id="rect4164"
     width="12"
     height="1"
     x="28"
     y="23" />
  <rect
     style="fill:#c4cbcd;fill-opacity:1;fill-rule:nonzero;stroke:none"
     id="rect4164-9"
     width="12"
     height="1"
     x="28"
     y="25" />
  <rect
     style="fill:#c4cbcd;fill-opacity:1;fill-rule:nonzero;stroke:none"
     id="rect4164-9-9"
     width="12"
     height="1"
     x="28"
     y="27" />
  <rect
     style="fill:#c4cbcd;fill-opacity:1;fill-rule:nonzero;stroke:none"
     id="rect4164-9-9-2"
     width="12"
     height="1"
     x="28"
     y="29" />
  <rect
     style="fill:#c4cbcd;fill-opacity:1;fill-rule:nonzero;stroke:none"
     id="rect4164-9-9-2-7"
     width="12"
     height="1"
     x="28"
     y="37" />
  <rect
     style="fill:#c4cbcd;fill-opacity:1;fill-rule:nonzero;stroke:none"
     id="rect4164-9-9-20"
     width="12"
     height="1"
     x="28"
     y="35" />
  <rect
     style="fill:#c4cbcd;fill-opacity:1;fill-rule:nonzero;stroke:none"
     id="rect4164-9-2"
     width="12"
     height="1"
     x="28"
     y="33" />
  <rect
     style="fill:#c4cbcd;fill-opacity:1;fill-rule:nonzero;stroke:none"
     id="rect4164-8"
     width="12"
     height="1"
     x="28"
     y="31" />
  <rect
     y="11"
     x="18"
     height="31"
     width="12"
     id="rect3876"
     style="opacity:1;fill:#9d9ea0;fill-opacity:1;fill-rule:nonzero;stroke:none" />
  <path
     style="fill:#d0d5d8;fill-opacity:1;fill-rule:nonzero;stroke:none"
     d="M 19 12 L 19 41 L 29 41 L 29 12 L 25 12 L 25 40 L 23 40 L 23 12 L 19 12 z "
     id="rect3878" />
  <rect
     style="fill:#8c8a8c;fill-opacity:1;fill-rule:nonzero;stroke:none"
     id="rect3885-5-9-1-5"
     width="2"
     height="2"
     x="26"
     y="-40"
     transform="scale(1,-1)" />
  <rect
     style="fill:#8c8a8c;fill-opacity:1;fill-rule:nonzero;stroke:none"
     id="rect3883-2-7-1"
     width="2"
     height="2"
     x="20"
     y="-37"
     transform="scale(1,-1)" />
  <path
     style="opacity:1;fill:#335533;fill-opacity:1;fill-rule:nonzero;stroke:none"
     d="M 21 36 C 17.134007 36 14 39.134007 14 43 C 14 43.626135 14.095789 44.234971 14.25 44.8125 C 17.212713 46.202821 20.510663 47 24 47 C 24.976514 47 25.930506 46.930614 26.875 46.8125 C 27.590817 45.714494 28 44.408481 28 43 C 28 39.134007 24.865993 36 21 36 z "
     id="path3793" />
  <path
     style="opacity:1;fill:#082c10;fill-opacity:1;fill-rule:nonzero;stroke:none"
     d="M 44 33 C 41.238576 33 39 35.238576 39 38 C 39 39.000083 39.30677 39.906072 39.8125 40.6875 C 42.048679 38.567684 43.850245 35.992398 45.09375 33.125 C 44.738285 33.044814 44.379696 33 44 33 z "
     id="path3797" />
  <path
     style="fill:#396929;fill-opacity:1;fill-rule:nonzero;stroke:none"
     d="M 28 39.03125 C 25.238576 39.03125 23 41.269826 23 44.03125 C 23 45.144251 23.37728 46.172708 24 47 C 27.129994 47 30.092696 46.351009 32.8125 45.21875 C 32.915986 44.835453 33 44.451152 33 44.03125 C 33 41.269826 30.761424 39.03125 28 39.03125 z "
     id="path3799" />
  <rect
     style="fill:#8c8a8c;fill-opacity:1;fill-rule:nonzero;stroke:none"
     id="rect3883"
     width="2"
     height="2"
     x="20"
     y="-16"
     transform="scale(1,-1)" />
  <rect
     style="fill:#8c8a8c;fill-opacity:1;fill-rule:nonzero;stroke:none"
     id="rect3885"
     width="2"
     height="2"
     x="26"
     y="-16"
     transform="scale(1,-1)" />
  <rect
     style="fill:#8c8a8c;fill-opacity:1;fill-rule:nonzero;stroke:none"
     id="rect3883-2"
     width="2"
     height="2"
     x="20"
     y="-19"
     transform="scale(1,-1)" />
  <rect
     style="fill:#8c8a8c;fill-opacity:1;fill-rule:nonzero;stroke:none"
     id="rect3885-5"
     width="2"
     height="2"
     x="26"
     y="-19"
     transform="scale(1,-1)" />
  <rect
     style="fill:#8c8a8c;fill-opacity:1;fill-rule:nonzero;stroke:none"
     id="rect3883-0"
     width="2"
     height="2"
     x="20"
     y="-22"
     transform="scale(1,-1)" />
  <rect
     style="fill:#8c8a8c;fill-opacity:1;fill-rule:nonzero;stroke:none"
     id="rect3885-1"
     width="2"
     height="2"
     x="26"
     y="-22"
     transform="scale(1,-1)" />
  <rect
     style="fill:#8c8a8c;fill-opacity:1;fill-rule:nonzero;stroke:none"
     id="rect3883-2-7"
     width="2"
     height="2"
     x="20"
     y="-25"
     transform="scale(1,-1)" />
  <rect
     style="fill:#8c8a8c;fill-opacity:1;fill-rule:nonzero;stroke:none"
     id="rect3885-5-9"
     width="2"
     height="2"
     x="26"
     y="-25"
     transform="scale(1,-1)" />
  <rect
     style="fill:#8c8a8c;fill-opacity:1;fill-rule:nonzero;stroke:none"
     id="rect3883-5"
     width="2"
     height="2"
     x="20"
     y="-28"
     transform="scale(1,-1)" />
  <rect
     style="fill:#8c8a8c;fill-opacity:1;fill-rule:nonzero;stroke:none"
     id="rect3885-7"
     width="2"
     height="2"
     x="26"
     y="-28"
     transform="scale(1,-1)" />
  <rect
     style="fill:#8c8a8c;fill-opacity:1;fill-rule:nonzero;stroke:none"
     id="rect3883-2-1"
     width="2"
     height="2"
     x="20"
     y="-31"
     transform="scale(1,-1)" />
  <rect
     style="fill:#8c8a8c;fill-opacity:1;fill-rule:nonzero;stroke:none"
     id="rect3885-5-4"
     width="2"
     height="2"
     x="26"
     y="-31"
     transform="scale(1,-1)" />
  <rect
     style="fill:#8c8a8c;fill-opacity:1;fill-rule:nonzero;stroke:none"
     id="rect3883-0-4"
     width="2"
     height="2"
     x="20"
     y="-34"
     transform="scale(1,-1)" />
  <rect
     style="fill:#8c8a8c;fill-opacity:1;fill-rule:nonzero;stroke:none"
     id="rect3885-1-2"
     width="2"
     height="2"
     x="26"
     y="-34"
     transform="scale(1,-1)" />
  <rect
     style="fill:#8c8a8c;fill-opacity:1;fill-rule:nonzero;stroke:none"
     id="rect3885-5-9-1"
     width="2"
     height="2"
     x="26"
     y="-37"
     transform="scale(1,-1)" />
  <rect
     style="fill:#c4cbcd;fill-opacity:1;fill-rule:nonzero;stroke:none"
     id="rect4227"
     width="1"
     height="16"
     x="39"
     y="22" />
  <rect
     style="fill:#c4cbcd;fill-opacity:1;fill-rule:nonzero;stroke:none"
     id="rect4227-1"
     width="1"
     height="18.3125"
     x="34"
     y="21" />
  <path
     style="opacity:1;fill:#335533;fill-opacity:1;fill-rule:nonzero;stroke:none"
     d="M 38 36 C 32.477153 36 28 40.477153 28 46 C 28 46.219486 28.017323 46.440282 28.03125 46.65625 C 34.126048 45.576906 39.387457 42.086751 42.8125 37.21875 C 41.389986 36.441004 39.735519 36 38 36 z "
     id="path3795" />
  <g
     id="g55">
    <path
       d="m 40.03 7.531 c 3.712 4.084 5.969 9.514 5.969 15.469 0 12.703 -10.297 23 -23 23 c -5.954 0 -11.384 -2.256 -15.469 -5.969 4.178 4.291 10.01 6.969 16.469 6.969 c 12.703 0 23 -10.298 23 -23 0 -6.462 -2.677 -12.291 -6.969 -16.469 z"
       opacity="0.1"
       id="path57" />
  </g>
</svg>

<svg xmlns="http://www.w3.org/2000/svg" viewBox="0 0 48 48">
 <defs>
  <clipPath id="clipPath-824049301">
   <g transform="translate(0,-1004.3622)">
    <path d="m -24 13 c 0 1.105 -0.672 2 -1.5 2 -0.828 0 -1.5 -0.895 -1.5 -2 0 -1.105 0.672 -2 1.5 -2 0.828 0 1.5 0.895 1.5 2 z" transform="matrix(15.333333,0,0,11.5,414.99999,878.8622)" style="fill:#1890d0"/>
   </g>
  </clipPath>
 </defs>
 <g>
  <path d="m 36.31 5 c 5.859 4.062 9.688 10.831 9.688 18.5 c 0 12.426 -10.07 22.5 -22.5 22.5 c -7.669 0 -14.438 -3.828 -18.5 -9.688 c 1.037 1.822 2.306 3.499 3.781 4.969 c 4.085 3.712 9.514 5.969 15.469 5.969 c 12.703 0 23 -10.298 23 -23 c 0 -5.954 -2.256 -11.384 -5.969 -15.469 c -1.469 -1.475 -3.147 -2.744 -4.969 -3.781 z m 4.969 3.781 c 3.854 4.113 6.219 9.637 6.219 15.719 c 0 12.703 -10.297 23 -23 23 c -6.081 0 -11.606 -2.364 -15.719 -6.219 c 4.16 4.144 9.883 6.719 16.219 6.719 c 12.703 0 23 -10.298 23 -23 c 0 -6.335 -2.575 -12.06 -6.719 -16.219 z" style="opacity:0.05"/>
  <path d="m 41.28 8.781 c 3.712 4.085 5.969 9.514 5.969 15.469 c 0 12.703 -10.297 23 -23 23 c -5.954 0 -11.384 -2.256 -15.469 -5.969 c 4.113 3.854 9.637 6.219 15.719 6.219 c 12.703 0 23 -10.298 23 -23 c 0 -6.081 -2.364 -11.606 -6.219 -15.719 z" style="opacity:0.1"/>
  <path d="m 31.25 2.375 c 8.615 3.154 14.75 11.417 14.75 21.13 c 0 12.426 -10.07 22.5 -22.5 22.5 c -9.708 0 -17.971 -6.135 -21.12 -14.75 a 23 23 0 0 0 44.875 -7 a 23 23 0 0 0 -16 -21.875 z" style="opacity:0.2"/>
 </g>
 <g style="fill:#4c7ebd;fill-opacity:1">
  <path d="m 24 1 c 12.703 0 23 10.297 23 23 c 0 12.703 -10.297 23 -23 23 -12.703 0 -23 -10.297 -23 -23 0 -12.703 10.297 -23 23 -23 z"/>
 </g>
 <path d="m 19 12 0 6 -3 0 -1 0 -5 0 0 3 0 1 0 2 0 1 0 2 0 1 0 2 0 1 0 2 0 1 0 2 0 1 0 3 1 0 8 0 0 3 12 0 0 -2 c 10.174 -4.266 0 0 10 -3 l 0 -1 0 -1 0 -1 0 -1 0 -1 0 -1 0 -1 0 -1 0 -1 0 -1 0 -1 0 -1 0 -1 0 -1 0 -2 -5 0 -1 0 -4 0 0 -10 z" style="fill:#000;opacity:0.1;fill-opacity:1;stroke:none;fill-rule:nonzero"/>
 <g>
  <g style="clip-path:url(#clipPath-824049301)">
   <!-- color: #7dc06d -->
  </g>
 </g>
 <path d="m 5 33 c -0.703 0 -1.382 0.111 -2.031 0.281 c 1.973 4.461 5.312 8.162 9.5 10.594 c 0.342 -0.891 0.531 -1.864 0.531 -2.875 c 0 -4.418 -3.582 -8 -8 -8 z" style="fill:#103810;opacity:1;fill-opacity:1;stroke:none;fill-rule:nonzero"/>
 <rect width="10" height="21" x="10" y="18" style="fill:#c1e6ff;fill-opacity:1;stroke:none;fill-rule:nonzero"/>
 <path d="m 9 17 l 0 3 l 0 1 l 0 2 l 0 1 l 0 2 l 0 1 l 0 2 l 0 1 l 0 2 l 0 1 l 0 2 l 0 1 l 0 3 l 1 0 l 0 -3 l 4 0 l 0 2 l 1 0 l 0 -2 l 5 0 l 0 -1 l -5 0 l 0 -2 l 5 0 l 0 -1 l -5 0 l 0 -2 l 5 0 l 0 -1 l -5 0 l 0 -2 l 5 0 l 0 -1 l -5 0 l 0 -2 l 5 0 l 0 -1 l -5 0 l 0 -2 l 5 0 l 0 -1 l -5 0 l 0 -2 l 5 0 l 0 -1 l -5 0 l -1 0 l -5 0 z m 1 1 l 4 0 l 0 2 l -4 0 l 0 -2 z m 0 3 l 4 0 l 0 2 l -4 0 l 0 -2 z m 0 3 l 4 0 l 0 2 l -4 0 l 0 -2 z m 0 3 l 4 0 l 0 2 l -4 0 l 0 -2 z m 0 3 l 4 0 l 0 2 l -4 0 l 0 -2 z m 0 3 l 4 0 l 0 2 l -4 0 l 0 -2 z" style="fill:#494949;fill-opacity:1;stroke:none;fill-rule:nonzero"/>
 <path d="m 14 37 c -2.613 0 -4.95 1.128 -6.594 2.906 c 3.965 4.135 9.447 6.793 15.563 7.06 c 0.035 -0.322 0.031 -0.637 0.031 -0.969 c 0 -4.971 -4.03 -9 -9 -9 z" style="fill:#396929;opacity:1;fill-opacity:1;stroke:none;fill-rule:nonzero"/>
 <rect width="13" height="19" x="27" y="21" style="fill:#dbdfe1;fill-opacity:1;stroke:none;fill-rule:nonzero"/>
 <rect width="12" height="1" x="28" y="39" style="fill:#c4cbcd;fill-opacity:1;stroke:none;fill-rule:nonzero"/>
 <rect width="12" height="1" x="28" y="21" style="fill:#c4cbcd;fill-opacity:1;stroke:none;fill-rule:nonzero"/>
 <rect width="12" height="1" x="28" y="23" style="fill:#c4cbcd;fill-opacity:1;stroke:none;fill-rule:nonzero"/>
 <rect width="12" height="1" x="28" y="25" style="fill:#c4cbcd;fill-opacity:1;stroke:none;fill-rule:nonzero"/>
 <rect width="12" height="1" x="28" y="27" style="fill:#c4cbcd;fill-opacity:1;stroke:none;fill-rule:nonzero"/>
 <rect width="12" height="1" x="28" y="29" style="fill:#c4cbcd;fill-opacity:1;stroke:none;fill-rule:nonzero"/>
 <rect width="12" height="1" x="28" y="37" style="fill:#c4cbcd;fill-opacity:1;stroke:none;fill-rule:nonzero"/>
 <rect width="12" height="1" x="28" y="35" style="fill:#c4cbcd;fill-opacity:1;stroke:none;fill-rule:nonzero"/>
 <rect width="12" height="1" x="28" y="33" style="fill:#c4cbcd;fill-opacity:1;stroke:none;fill-rule:nonzero"/>
 <rect width="12" height="1" x="28" y="31" style="fill:#c4cbcd;fill-opacity:1;stroke:none;fill-rule:nonzero"/>
 <rect y="11" x="18" height="31" width="12" style="fill:#9d9ea0;opacity:1;fill-opacity:1;stroke:none;fill-rule:nonzero"/>
 <path d="m 19 12 l 0 29 l 10 0 l 0 -29 l -4 0 l 0 28 l -2 0 l 0 -28 l -4 0 z" style="fill:#d0d5d8;fill-opacity:1;stroke:none;fill-rule:nonzero"/>
 <rect width="2" height="2" x="26" y="-40" transform="scale(1,-1)" style="fill:#8c8a8c;fill-opacity:1;stroke:none;fill-rule:nonzero"/>
 <rect width="2" height="2" x="20" y="-37" transform="scale(1,-1)" style="fill:#8c8a8c;fill-opacity:1;stroke:none;fill-rule:nonzero"/>
 <path d="m 21 36 c -3.866 0 -7 3.134 -7 7 c 0 0.626 0.096 1.235 0.25 1.813 c 2.963 1.39 6.261 2.188 9.75 2.188 c 0.977 0 1.931 -0.069 2.875 -0.188 c 0.716 -1.098 1.125 -2.404 1.125 -3.813 c 0 -3.866 -3.134 -7 -7 -7 z" style="fill:#353;opacity:1;fill-opacity:1;stroke:none;fill-rule:nonzero"/>
 <path d="m 44 33 c -2.761 0 -5 2.239 -5 5 c 0 1 0.307 1.906 0.813 2.688 c 2.236 -2.12 4.04 -4.695 5.281 -7.563 c -0.355 -0.08 -0.714 -0.125 -1.094 -0.125 z" style="fill:#082c10;opacity:1;fill-opacity:1;stroke:none;fill-rule:nonzero"/>
 <path d="m 28 39.03 c -2.761 0 -5 2.239 -5 5 c 0 1.113 0.377 2.141 1 2.969 c 3.13 0 6.093 -0.649 8.813 -1.781 c 0.103 -0.383 0.188 -0.768 0.188 -1.188 c 0 -2.761 -2.239 -5 -5 -5 z" style="fill:#396929;fill-opacity:1;stroke:none;fill-rule:nonzero"/>
 <rect width="2" height="2" x="20" y="-16" transform="scale(1,-1)" style="fill:#8c8a8c;fill-opacity:1;stroke:none;fill-rule:nonzero"/>
 <rect width="2" height="2" x="26" y="-16" transform="scale(1,-1)" style="fill:#8c8a8c;fill-opacity:1;stroke:none;fill-rule:nonzero"/>
 <rect width="2" height="2" x="20" y="-19" transform="scale(1,-1)" style="fill:#8c8a8c;fill-opacity:1;stroke:none;fill-rule:nonzero"/>
 <rect width="2" height="2" x="26" y="-19" transform="scale(1,-1)" style="fill:#8c8a8c;fill-opacity:1;stroke:none;fill-rule:nonzero"/>
 <rect width="2" height="2" x="20" y="-22" transform="scale(1,-1)" style="fill:#8c8a8c;fill-opacity:1;stroke:none;fill-rule:nonzero"/>
 <rect width="2" height="2" x="26" y="-22" transform="scale(1,-1)" style="fill:#8c8a8c;fill-opacity:1;stroke:none;fill-rule:nonzero"/>
 <rect width="2" height="2" x="20" y="-25" transform="scale(1,-1)" style="fill:#8c8a8c;fill-opacity:1;stroke:none;fill-rule:nonzero"/>
 <rect width="2" height="2" x="26" y="-25" transform="scale(1,-1)" style="fill:#8c8a8c;fill-opacity:1;stroke:none;fill-rule:nonzero"/>
 <rect width="2" height="2" x="20" y="-28" transform="scale(1,-1)" style="fill:#8c8a8c;fill-opacity:1;stroke:none;fill-rule:nonzero"/>
 <rect width="2" height="2" x="26" y="-28" transform="scale(1,-1)" style="fill:#8c8a8c;fill-opacity:1;stroke:none;fill-rule:nonzero"/>
 <rect width="2" height="2" x="20" y="-31" transform="scale(1,-1)" style="fill:#8c8a8c;fill-opacity:1;stroke:none;fill-rule:nonzero"/>
 <rect width="2" height="2" x="26" y="-31" transform="scale(1,-1)" style="fill:#8c8a8c;fill-opacity:1;stroke:none;fill-rule:nonzero"/>
 <rect width="2" height="2" x="20" y="-34" transform="scale(1,-1)" style="fill:#8c8a8c;fill-opacity:1;stroke:none;fill-rule:nonzero"/>
 <rect width="2" height="2" x="26" y="-34" transform="scale(1,-1)" style="fill:#8c8a8c;fill-opacity:1;stroke:none;fill-rule:nonzero"/>
 <rect width="2" height="2" x="26" y="-37" transform="scale(1,-1)" style="fill:#8c8a8c;fill-opacity:1;stroke:none;fill-rule:nonzero"/>
 <rect width="1" height="16" x="39" y="22" style="fill:#c4cbcd;fill-opacity:1;stroke:none;fill-rule:nonzero"/>
 <rect width="1" height="18.313" x="34" y="21" style="fill:#c4cbcd;fill-opacity:1;stroke:none;fill-rule:nonzero"/>
 <path d="m 38 36 c -5.523 0 -10 4.477 -10 10 c 0 0.219 0.017 0.44 0.031 0.656 c 6.095 -1.079 11.356 -4.569 14.781 -9.438 c -1.423 -0.778 -3.077 -1.219 -4.813 -1.219 z" style="fill:#353;opacity:1;fill-opacity:1;stroke:none;fill-rule:nonzero"/>
 <g>
  <path d="m 40.03 7.531 c 3.712 4.084 5.969 9.514 5.969 15.469 0 12.703 -10.297 23 -23 23 c -5.954 0 -11.384 -2.256 -15.469 -5.969 4.178 4.291 10.01 6.969 16.469 6.969 c 12.703 0 23 -10.298 23 -23 0 -6.462 -2.677 -12.291 -6.969 -16.469 z" style="opacity:0.1"/>
 </g>
</svg>
